X:7
T:Splendid Isolation
R:reel
M:4/4
L:1/8
K:Edor
D |: EGFD EBAF | E/2E/2E FE DEFA | BFAF EFGA | Beed e2ef |
gefe dB B/2B/2B | cdec dBAF | E/2E/2E FE DEFA |1 BFAF [E3E,3]D :|2 BFAF EFGB ||
|: e2 fe dB B/2B/2B | edBA FABA | FE E/2E/2E FABA | FE E/2E/2E D2 DE |
DEFD EBAF | E/2E/2E FE DEFA | Be e/2e/2e defe |1 dBAF EFGB :||  dBAF [E3E,3]D||
